frontend/src/Link/icons/linkedin.svg

<?xml version="1.0" encoding="UTF-8" standalone="no"?>
<!DOCTYPE svg  PUBLIC '-//W3C//DTD SVG 1.1//EN'  'http://www.w3.org/Graphics/SVG/1.1/DTD/svg11.dtd'>
<svg style="enable-background:new 0 0 430.117 430.118" xmlns="http://www.w3.org/2000/svg" height="430.12px" width="430.12px" version="1.1" y="0px" x="0px" viewBox="0 0 430.117 430.118">
 <path d="m398.36 0h-366.58c-17.551 0-31.778 13.793-31.778 30.817v368.47c0 17.025 14.232 30.83 31.78 30.83h366.57c17.549 0 31.76-13.814 31.76-30.83v-368.47c0.01-17.022-14.21-30.82-31.75-30.82zm-267.96 360.04h-64.987v-194.2h64.987v194.2zm-32.487-220.72h-0.437c-21.793 0-35.92-14.904-35.92-33.563 0-19.035 14.542-33.535 36.767-33.535 22.227 0 35.899 14.496 36.331 33.535 0 18.66-14.09 33.56-36.737 33.56zm266.75 220.72h-64.966v-103.9c0-26.107-9.413-43.921-32.907-43.921-17.973 0-28.642 12.018-33.327 23.621-1.736 4.144-2.166 9.94-2.166 15.728v108.47h-64.954s0.85-175.98 0-194.19h64.964v27.531c8.624-13.229 24.035-32.1 58.534-32.1 42.76 0 74.822 27.739 74.822 87.414v111.35zm-133.78-166.05c0.111-0.182 0.266-0.401 0.42-0.614v0.614h-0.42z"/>
</svg>

<?xml version="1.0" encoding="iso-8859-1"?>
<!-- Generator: Adobe Illustrator 16.0.0, SVG Export Plug-In . SVG Version: 6.00 Build 0)  -->
<!DOCTYPE svg PUBLIC "-//W3C//DTD SVG 1.1//EN" "http://www.w3.org/Graphics/SVG/1.1/DTD/svg11.dtd">
<svg version="1.1" id="Capa_1" xmlns="http://www.w3.org/2000/svg" xmlns:xlink="http://www.w3.org/1999/xlink" x="0px" y="0px"
	 width="430.117px" height="430.118px" viewBox="0 0 430.117 430.118" style="enable-background:new 0 0 430.117 430.118;"
	 xml:space="preserve">
<g>
	<path id="LinkedIn__x28_alt_x29_" d="M398.355,0H31.782C14.229,0,0.002,13.793,0.002,30.817v368.471
		c0,17.025,14.232,30.83,31.78,30.83h366.573c17.549,0,31.76-13.814,31.76-30.83V30.817C430.115,13.798,415.904,0,398.355,0z
		 M130.4,360.038H65.413V165.845H130.4V360.038z M97.913,139.315h-0.437c-21.793,0-35.92-14.904-35.92-33.563
		c0-19.035,14.542-33.535,36.767-33.535c22.227,0,35.899,14.496,36.331,33.535C134.654,124.415,120.555,139.315,97.913,139.315z
		 M364.659,360.038h-64.966V256.138c0-26.107-9.413-43.921-32.907-43.921c-17.973,0-28.642,12.018-33.327,23.621
		c-1.736,4.144-2.166,9.94-2.166,15.728v108.468h-64.954c0,0,0.85-175.979,0-194.192h64.964v27.531
		c8.624-13.229,24.035-32.1,58.534-32.1c42.76,0,74.822,27.739,74.822,87.414V360.038z M230.883,193.99
		c0.111-0.182,0.266-0.401,0.42-0.614v0.614H230.883z"/>
</g>
<g>
</g>
<g>
</g>
<g>
</g>
<g>
</g>
<g>
</g>
<g>
</g>
<g>
</g>
<g>
</g>
<g>
</g>
<g>
</g>
<g>
</g>
<g>
</g>
<g>
</g>
<g>
</g>
<g>
</g>
</svg>
